public/flags/BF.svg

<svg fill="none" height="53" viewBox="0 0 61 53" width="61" xmlns="http://www.w3.org/2000/svg" xmlns:xlink="http://www.w3.org/1999/xlink"><mask id="a" height="43" maskUnits="userSpaceOnUse" width="59" x="1" y="3"><rect fill="#fff" height="42.5" rx="4.24286" width="59" x="1" y="3"/></mask><rect fill="#fff" height="42.5" rx="4.24286" width="59" x="1" y="3"/><g clip-rule="evenodd" fill-rule="evenodd" mask="url(#a)"><path d="m1 45.5h59v-19.8333h-59z" fill="#00b051"/><path d="m1 25.6667h59v-22.6667h-59z" fill="#fa494b"/><path d="m30.4999 28.9817-4.9542 3.5616 1.8279-5.8523-4.8898-3.651 6.0839-.0552 1.9322-5.8181 1.9321 5.8181 6.0839.0552-4.8898 3.651 1.828 5.8523z" fill="#fdd216"/></g></svg>

<svg width="61" height="53" viewBox="0 0 61 53" fill="none" xmlns="http://www.w3.org/2000/svg">
<rect x="1" y="3" width="59" height="42.5" rx="4.24286" fill="white"/>
<mask id="mask0" mask-type="alpha" maskUnits="userSpaceOnUse" x="1" y="3" width="59" height="43">
<rect x="1" y="3" width="59" height="42.5" rx="4.24286" fill="white"/>
</mask>
<g mask="url(#mask0)">
<path fill-rule="evenodd" clip-rule="evenodd" d="M1 45.5H60V25.6667H1V45.5Z" fill="#00B051"/>
<path fill-rule="evenodd" clip-rule="evenodd" d="M1 25.6667H60V3H1V25.6667Z" fill="#FA494B"/>
<path fill-rule="evenodd" clip-rule="evenodd" d="M30.4999 28.9817L25.5457 32.5433L27.3736 26.691L22.4838 23.04L28.5677 22.9848L30.4999 17.1667L32.432 22.9848L38.5159 23.04L33.6261 26.691L35.4541 32.5433L30.4999 28.9817Z" fill="#FDD216"/>
</g>
</svg>
